src/components/Icon/svg-icon/main/list-add.svg

<svg xmlns="http://www.w3.org/2000/svg" width="24" height="24"><path fill="#677078" d="M14 10H2v2h12v-2zm0-4H2v2h12V6zm4 8v-4h-2v4h-4v2h4v4h2v-4h4v-2h-4zM2 16h8v-2H2v2z"/></svg>

<svg xmlns="http://www.w3.org/2000/svg" width="24" height="24" viewBox="0 0 24 24">
  <path fill="#677078" d="M14,10 L2,10 L2,12 L14,12 L14,10 Z M14,6 L2,6 L2,8 L14,8 L14,6 Z M18,14 L18,10 L16,10 L16,14 L12,14 L12,16 L16,16 L16,20 L18,20 L18,16 L22,16 L22,14 L18,14 Z M2,16 L10,16 L10,14 L2,14 L2,16 Z"/>
</svg>
